apps/finance/app/public/meta/icon.svg

<svg width="24" height="24" viewBox="0 0 24 24" fill="none" xmlns="http://www.w3.org/2000/svg">
<rect width="24" height="24" fill="url(#paint0_linear)"/>
<path d="M17.455 4H6.54572C6.14402 4 5.81857 4.32578 5.81857 4.72747V19.2725C5.81857 19.6742 6.14436 20 6.54572 20H17.455C17.8567 20 18.1821 19.6742 18.1821 19.2725V4.72747C18.1821 4.32578 17.8567 4 17.455 4ZM16.7275 5.45427V7.63601H7.27287V5.45427H16.7275ZM7.27287 18.5457V9.09062H16.7275V18.5447H7.27287V18.5457Z" fill="url(#paint1_linear)"/>
<path d="M9.87336 9.73401H8.36357C8.16272 9.73401 8 9.89707 8 10.0976V11.6084C8 11.8092 8.16306 11.9719 8.36357 11.9719H9.87336C10.0742 11.9719 10.2369 11.8089 10.2369 11.6084V10.0976C10.2373 9.89639 10.0749 9.73401 9.87336 9.73401Z" fill="white"/>
<path d="M12.7548 9.73401H11.2453C11.0445 9.73401 10.8817 9.89707 10.8817 10.0976V11.6084C10.8817 11.8092 11.0445 11.9719 11.2453 11.9719H12.7548C12.9556 11.9719 13.1183 11.8089 13.1183 11.6084V10.0976C13.1187 9.89639 12.9556 9.73401 12.7548 9.73401Z" fill="white"/>
<path d="M15.6364 9.73401H14.1267C13.9258 9.73401 13.7634 9.89707 13.7634 10.0976V11.6084C13.7634 11.8092 13.9262 11.9719 14.1267 11.9719H15.6364C15.8373 11.9719 16 11.8089 16 11.6084V10.0976C16 9.89639 15.8373 9.73401 15.6364 9.73401Z" fill="white"/>
<path d="M9.87336 12.6994H8.36357C8.16272 12.6994 8 12.8621 8 13.0626V14.5734C8 14.7742 8.16306 14.9366 8.36357 14.9366H9.87336C10.0742 14.9366 10.2369 14.7739 10.2369 14.5734V13.0626C10.2373 12.8614 10.0749 12.6994 9.87336 12.6994Z" fill="white" fill-opacity="0.8"/>
<path d="M12.7548 12.6994H11.2453C11.0445 12.6994 10.8817 12.8621 10.8817 13.0626V14.5734C10.8817 14.7742 11.0445 14.9366 11.2453 14.9366H12.7548C12.9556 14.9366 13.1183 14.7739 13.1183 14.5734V13.0626C13.1187 12.8614 12.9556 12.6994 12.7548 12.6994Z" fill="white" fill-opacity="0.8"/>
<path d="M9.87336 15.6648H8.36357C8.16272 15.6648 8 15.8275 8 16.0277V17.5384C8 17.74 8.16306 17.902 8.36357 17.902H9.87336C10.0742 17.902 10.2369 17.7389 10.2369 17.5384V16.0277C10.2373 15.8268 10.0749 15.6648 9.87336 15.6648Z" fill="white" fill-opacity="0.6"/>
<path d="M12.7548 15.6648H11.2453C11.0445 15.6648 10.8817 15.8275 10.8817 16.0277V17.5384C10.8817 17.74 11.0445 17.902 11.2453 17.902H12.7548C12.9556 17.902 13.1183 17.7389 13.1183 17.5384V16.0277C13.1187 15.8268 12.9556 15.6648 12.7548 15.6648Z" fill="white" fill-opacity="0.6"/>
<path d="M15.6364 12.6994H14.1267C13.9258 12.6994 13.7634 12.8621 13.7634 13.0626V17.5384C13.7634 17.74 13.9262 17.902 14.1267 17.902H15.6364C15.8373 17.902 16 17.7389 16 17.5384V13.0626C16 12.8614 15.8373 12.6994 15.6364 12.6994Z" fill="white" fill-opacity="0.6"/>
<defs>
<linearGradient id="paint0_linear" x1="26.1946" y1="7.08315" x2="8.07219" y2="-9.06122" gradientUnits="userSpaceOnUse">
<stop stop-color="#46C4E6"/>
<stop offset="1" stop-color="#4A80E4"/>
</linearGradient>
<linearGradient id="paint1_linear" x1="12" y1="8" x2="12" y2="27.5" gradientUnits="userSpaceOnUse">
<stop stop-color="white"/>
<stop offset="1" stop-color="white" stop-opacity="0"/>
</linearGradient>
</defs>
</svg>

<svg width="24" height="24" fill="none" xmlns="http://www.w3.org/2000/svg"><path fill="url(#paint0_linear)" d="M0 0h24v24H0z"/><path d="M17.455 4H6.545a.727.727 0 0 0-.726.727v14.546c0 .401.325.727.727.727h10.909a.727.727 0 0 0 .727-.727V4.727A.727.727 0 0 0 17.455 4zm-.727 1.454v2.182H7.272V5.454h9.454zM7.272 18.546V9.09h9.454v9.454H7.273z" fill="url(#paint1_linear)"/><path d="M9.873 9.734h-1.51c-.2 0-.363.163-.363.364v1.51c0 .201.163.364.364.364h1.51c.2 0 .363-.163.363-.364v-1.51a.363.363 0 0 0-.364-.364zM12.755 9.734h-1.51c-.2 0-.363.163-.363.364v1.51c0 .201.162.364.363.364h1.51c.2 0 .363-.163.363-.364v-1.51a.363.363 0 0 0-.363-.364zM15.636 9.734h-1.51c-.2 0-.363.163-.363.364v1.51c0 .201.163.364.364.364h1.51c.2 0 .363-.163.363-.364v-1.51a.363.363 0 0 0-.364-.364z" fill="#fff"/><path d="M9.873 12.7h-1.51c-.2 0-.363.162-.363.363v1.51c0 .201.163.364.364.364h1.51c.2 0 .363-.163.363-.364v-1.51a.362.362 0 0 0-.364-.364zM12.755 12.7h-1.51c-.2 0-.363.162-.363.363v1.51c0 .201.162.364.363.364h1.51c.2 0 .363-.163.363-.364v-1.51a.363.363 0 0 0-.363-.364z" fill="#fff" fill-opacity=".8"/><path d="M9.873 15.665h-1.51c-.2 0-.363.163-.363.363v1.51c0 .202.163.364.364.364h1.51c.2 0 .363-.163.363-.364v-1.51c0-.201-.162-.363-.364-.363zM12.755 15.665h-1.51c-.2 0-.363.163-.363.363v1.51c0 .202.162.364.363.364h1.51c.2 0 .363-.163.363-.364v-1.51c0-.201-.162-.363-.363-.363zM15.636 12.7h-1.51c-.2 0-.363.162-.363.363v4.475c0 .202.163.364.364.364h1.51c.2 0 .363-.163.363-.364v-4.475a.363.363 0 0 0-.364-.364z" fill="#fff" fill-opacity=".6"/><defs><linearGradient id="paint0_linear" x1="26.195" y1="7.083" x2="8.072" y2="-9.061" gradientUnits="userSpaceOnUse"><stop stop-color="#46C4E6"/><stop offset="1" stop-color="#4A80E4"/></linearGradient><linearGradient id="paint1_linear" x1="12" y1="8" x2="12" y2="27.5" gradientUnits="userSpaceOnUse"><stop stop-color="#fff"/><stop offset="1" stop-color="#fff" stop-opacity="0"/></linearGradient></defs></svg>
